X:1
T:Santiago de Compostela, CMD
T:Santiago de Compostela, CMD
T:Clarence Milton Seamans, 1902
T:Public Domain Courtesy of the Cyber Hymnal™
C:Clarence Milton Seamans, 1902
Z:Public Domain
Z:Courtesy of the Cyber Hymnal™
%%score 1 ( 2 3 )
L:1/8
Q:1/4=97
M:6/8
K:C
V:1 treble 
V:2 bass 
V:3 bass 
V:1
 [CE] | ([CE][DF])[^D^F] [EG]2 [Ec] | [Fc]2 [FB] [FB]2 [FB] | [FB]2 [B,D] [EG]2 [DF] | %4
 [CE]3- [CE]2 [CE] | ([CE][DF])[^D^F] [EG]2 [Ec] | [Ec]2 [DB] [DB]2 [GB] | [EA]2 [EA] [DG]2 [D^F] | %8
 [DG]3- [DG]2 [FG] | [Fd]2 [FB] [FA]2 [FG] | [Ec]2 [Fc] [Ec]2 [EG] | [FA]2 [FA] [^Fd]2 [Ac] | %12
 [GB]3- [GB]2 [FG] | [Ec]2 [Ec] [Ec]2 [Ec] | [Fd]2 [Fc] !fermata![FA]2 [FA] | %15
 [EG]2 [Ec] [Fc]2 [FB] | [Ec]3- [Ec]2 |] %17
V:2
 [C,G,] | [C,G,]2 [C,A,] [C,G,]2 [C,G,] | [D,G,]2 [D,G,] [D,G,]2 [G,D] | [G,D]2 G, G,2 G, | %4
 [C,G,]3- [C,G,]2 [C,G,] | [C,G,]2 [C,A,] [C,G,]2 [C,G,] | [C,G,]2 G, G,2 [G,D] | %7
 [C,C]2 [C,C] [D,B,]2 [D,A,] | [G,B,]3- [G,B,]2 [G,B,] | [G,B,]2 [G,D] [G,C]2 [G,B,] | %10
 [C,C]2 [C,A,] [C,G,]2 [C,C] | [F,C]2 [F,C] [D,C]2 [^F,D] | [G,D]3- [G,D]2 G, | %13
 [C,G,]2 [C,G,] [C,G,]2 [C,G,] | [F,A,]2 [F,A,] !fermata![F,C]2 [F,C] | [G,C]2 [G,C] [G,D]2 G, | %16
 [C,G,]3- [C,G,]2 |] %17
V:3
 x | x6 | x6 | x2 G, G,2 G, | x6 | x6 | x2 G, G,2 x | x6 | x6 | x6 | x6 | x6 | x5 G, | x6 | x6 | %15
 x5 G, | x5 |] %17

